assets/icons/notification.svg

<svg width="25" height="25" viewBox="0 0 25 25" fill="none" xmlns="http://www.w3.org/2000/svg">
<g id="notification">
<path id="iconDefault" fill-rule="evenodd" clip-rule="evenodd" d="M5.66016 2.45605C4.27944 2.45605 3.16016 3.57534 3.16016 4.95605V15.5008C3.16016 16.8815 4.27944 18.0008 5.66016 18.0008H9.84359C10.5073 18.0008 11.0468 18.4322 11.2918 18.9795C12.2238 21.0618 14.3025 22.5167 16.723 22.5437C16.7227 22.5432 16.7223 22.5428 16.722 22.5423C16.0939 21.6885 15.654 20.6867 15.4644 19.5987C15.3059 18.6887 16.0655 18.0008 16.8784 18.0008H19.3371C20.7178 18.0008 21.8371 16.8815 21.8371 15.5008V4.95605C21.8371 3.57534 20.7178 2.45605 19.3371 2.45605H5.66016ZM2.16016 4.95605C2.16016 3.02306 3.72716 1.45605 5.66016 1.45605H19.3371C21.2701 1.45605 22.8371 3.02306 22.8371 4.95605V15.5008C22.8371 17.4338 21.2701 19.0008 19.3371 19.0008H16.8784C16.5732 19.0008 16.4162 19.2354 16.4496 19.427C16.612 20.3589 16.9886 21.2172 17.5275 21.9497C17.751 22.2536 17.7847 22.6353 17.6608 22.9489C17.5323 23.2741 17.2216 23.5441 16.7917 23.5441C13.9335 23.5441 11.4751 21.8367 10.3791 19.3881C10.2682 19.1403 10.051 19.0008 9.84359 19.0008H5.66016C3.72716 19.0008 2.16016 17.4338 2.16016 15.5008V4.95605Z" fill="#18303F"/>
</g>
</svg>

<svg width="25" height="25" viewBox="0 0 25 25" fill="none"><g id="notification"><path id="iconDefault" fill-rule="evenodd" clip-rule="evenodd" d="M5.66 2.456a2.5 2.5 0 0 0-2.5 2.5v10.545a2.5 2.5 0 0 0 2.5 2.5h4.184c.663 0 1.203.431 1.448.979a6.024 6.024 0 0 0 5.431 3.564l-.001-.002a6.989 6.989 0 0 1-1.258-2.943c-.158-.91.601-1.598 1.414-1.598h2.46a2.5 2.5 0 0 0 2.5-2.5V4.956a2.5 2.5 0 0 0-2.5-2.5H5.66Zm-3.5 2.5a3.5 3.5 0 0 1 3.5-3.5h13.677a3.5 3.5 0 0 1 3.5 3.5v10.545a3.5 3.5 0 0 1-3.5 3.5h-2.459c-.305 0-.462.234-.428.426.162.932.539 1.79 1.078 2.523.223.304.257.685.133.999a.924.924 0 0 1-.87.595 7.024 7.024 0 0 1-6.412-4.156c-.11-.248-.328-.387-.535-.387H5.66a3.5 3.5 0 0 1-3.5-3.5V4.956Z" fill="#18303F"/></g></svg>
